icons/Settings.svg

<svg width="24" height="24" viewBox="0 0 24 24" fill="none" xmlns="http://www.w3.org/2000/svg">
<path fill-rule="evenodd" clip-rule="evenodd" d="M13.52 2L14 4.92C14.5318 5.07696 15.0448 5.29156 15.53 5.56L18 3.83L20.14 6L18.43 8.44C18.702 8.93278 18.9135 9.45656 19.06 10L22 10.48V13.56L19.06 14C18.9099 14.5279 18.702 15.0377 18.44 15.52L20.17 18L18 20.14L15.57 18.44C15.0814 18.7085 14.565 18.923 14.03 19.08L13.52 22H10.44L10 19.09C9.46501 18.9331 8.94865 18.7185 8.46 18.45L6 20.14L3.83 18L5.54 15.6C5.26158 15.0951 5.04662 14.5577 4.9 14L2 13.52V10.44L4.9 10C5.0551 9.46436 5.26978 8.9478 5.54 8.46L3.85 6L6 3.83L8.4 5.54C8.90915 5.27312 9.44558 5.0619 10 4.91L10.44 2H13.52ZM12 8.63C11.3227 8.61209 10.6555 8.79693 10.084 9.16081C9.51254 9.52469 9.06278 10.051 8.79247 10.6723C8.52215 11.2935 8.4436 11.9814 8.5669 12.6476C8.69019 13.3138 9.00971 13.9279 9.48446 14.4113C9.95921 14.8946 10.5675 15.2251 11.2314 15.3604C11.8953 15.4956 12.5844 15.4294 13.2104 15.1703C13.8365 14.9112 14.3708 14.471 14.7449 13.9061C15.1189 13.3412 15.3157 12.6775 15.31 12C15.3025 11.1188 14.9533 10.275 14.3358 9.64634C13.7183 9.01767 12.8809 8.65329 12 8.63Z" fill="black"/>
</svg>

<svg xmlns="http://www.w3.org/2000/svg" viewBox="0 0 24 24">
  <path d="M13.52 2L14 4.92a7.61 7.61 0 011.53.64L18 3.83 20.14 6l-1.71 2.44c.272.493.483 1.017.63 1.56l2.94.48v3.08l-2.94.44a7.457 7.457 0 01-.62 1.52L20.17 18 18 20.14l-2.43-1.7a7.699 7.699 0 01-1.54.64L13.52 22h-3.08L10 19.09a7.695 7.695 0 01-1.54-.64L6 20.14 3.83 18l1.71-2.4A6.998 6.998 0 014.9 14L2 13.52v-3.08L4.9 10a7.46 7.46 0 01.64-1.54L3.85 6 6 3.83l2.4 1.71a8 8 0 011.6-.63L10.44 2h3.08zM12 8.63a3.4 3.4 0 10-.18 6.798A3.4 3.4 0 0012 8.63z"/>
</svg>
